X:104
T: DER PAPST LEBT HERRLICH IN DER WELT
N: F0220
O: Europa, Mitteleuropa, Deutschland
R: Trink - Lied, Liebe, Spott
M: 4/4
L: 1/8
K: C
G, | C3C,C,C,E,C, | G,4z3
G, | D3CB,A,G,F, | E,4z
G,A,B, | C2G,2D2G,2 | E4z
DCB, | A,2D2C2B,2 | C4z
G,A,B, | C2G,2D2G,2 | E4z
DCB, | A,2D2C2B,2 | C4z3

